public/img/bg-terreo.svg

<svg width="311" height="294" viewBox="0 0 311 294" fill="none" xmlns="http://www.w3.org/2000/svg">
<path d="M89.2966 229.16C88.8387 222.729 87.2953 216.088 84.5395 208.985M89.2966 237.342C89.128 239.702 88.8147 242.047 88.3635 244.39M88.3635 244.39C85.5532 258.988 77.3916 273.547 65.4917 291.268L63.5267 289.474M88.3635 244.39H106.039M106.039 244.39V243.006M106.039 244.39V245.775M84.5395 208.985C80.682 199.044 74.4489 188.198 65.4917 175.756L2 233.314L59.0873 285.422M84.5395 208.985H88.4805M152.719 226.589H153.905M152.719 226.589H151.532M152.719 226.589V191.952M148.367 244.39H152.719V239.841M148.367 244.39V243.006M148.367 244.39V245.775M152.719 239.841H151.532M152.719 239.841H153.905M65.4917 139.56H79.3373M65.4917 139.56V122.352M65.4917 139.56V155.779M79.3373 139.56H88.4358M79.3373 139.56V143.714M152.719 174.569V191.777V191.952M152.719 174.569V156.768M152.719 174.569H135.992M152.719 156.768V139.758M152.719 156.768H134.917M129.181 156.768V145.494M129.181 156.768H130.368M129.181 156.768V168.438M152.719 139.758H129.181V140.944M152.719 139.758V135.011H171.905V110.484H152.719M152.719 110.484V105.144M152.719 110.484V113.946V117.407M152.719 105.144V58.2668H253.91M152.719 105.144H146.983M88.4358 105.144H65.4917V122.352M88.4358 105.144H140.456M88.4358 105.144V106.133M88.4358 139.56H100.303V165.273M88.4358 139.56V137.978M65.4917 122.352H88.4358M88.4358 122.352V122.154V118.594M88.4358 122.352V131.45M88.4358 118.594H93.974M88.4358 118.594V110.682M88.4358 131.45H100.303V118.594H99.1166M88.4358 131.45V133.231M140.456 105.144V58.2668H129.775M140.456 105.144H141.84M129.775 58.2668V69.3432H94.963V58.2668H85.8645V11.9831H164.191M129.775 58.2668V56.4866M164.191 11.9831V46.5969M164.191 11.9831V1.5H216.408V11.9831M164.191 46.5969H129.775V48.3771M164.191 46.5969H188.124M268.428 58.2668V69.7388H285.438V75.4748H292.163M268.428 58.2668V56.2888M268.428 58.2668H263.905M268.428 11.9831H309.965V58.2668H303.042V75.4748H302.053M268.428 11.9831H216.408M268.428 11.9831V46.5969M216.408 11.9831V46.5969M216.408 46.5969H197.024M216.408 46.5969H236.385M268.428 46.5969H245.286M268.428 46.5969V48.7727M152.719 117.407H165.377M152.719 117.407V128.483M152.719 117.407L165.377 128.483M165.377 117.407V128.483M165.377 117.407L152.719 128.483M165.377 128.483H152.719M88.4805 208.985V207.799M88.4805 208.985V210.37M96.3624 208.985H100.303V191.952M96.3624 208.985V210.37M96.3624 208.985V207.799M100.303 165.273H101.49M100.303 165.273H99.1166M100.303 171.8H99.1166M100.303 171.8H101.49M100.303 171.8V174.122M79.3373 148.658V156.867V173.582V174.122M65.4917 161.317V174.174L79.3373 174.122M129.181 173.185V174.569H134.641H135.992M253.91 58.2668V57.1497M253.91 58.2668V59.446M263.905 58.2668V59.446M263.905 58.2668V57.1497M87.3656 174.122H79.3373M100.303 174.122H94.9297M100.303 174.122V191.014V191.952M100.303 191.952H108.977M120.053 191.952H135.992M152.719 191.952H135.992M135.992 191.952V180.471M135.992 174.569V176.013" stroke="#18211A" stroke-width="2"/>
<path d="M89.2269 228.963V237.468" stroke="#FF8822"/>
<path d="M59.0005 285.287L63.5929 289.609" stroke="#FF8822"/>
<path d="M79.3373 143.714V148.658" stroke="#FF8822"/>
<path d="M108.977 191.952H120.251" stroke="#FF8822"/>
<path d="M65.4917 155.779V161.317" stroke="#FF8822"/>
<path d="M87.3656 174.122H94.9296" stroke="#FF8822"/>
<path d="M135.992 176.013V180.471" stroke="#FF8822"/>
<path d="M129.181 168.438V173.185" stroke="#FF8822"/>
<path d="M130.368 156.768H134.917" stroke="#FF8822"/>
<path d="M129.181 140.944V145.494" stroke="#FF8822"/>
<path d="M88.4358 133.231V137.978" stroke="#FF8822"/>
<path d="M93.974 118.594H99.1166" stroke="#FF8822"/>
<path d="M88.4358 106.133V110.682" stroke="#FF8822"/>
<path d="M141.84 105.144H146.983" stroke="#FF8822"/>
<path d="M129.775 48.3771V56.4866" stroke="#FF8822"/>
<path d="M188.124 46.5969H197.024" stroke="#FF8822"/>
<path d="M236.385 46.5969H245.286" stroke="#FF8822"/>
<path d="M268.428 48.7726V56.2888" stroke="#FF8822"/>
<path d="M292.163 75.4748H302.053" stroke="#FF8822"/>
<path d="M153.339 232.937C153.222 233.054 153.222 233.244 153.339 233.361L155.248 235.27C155.365 235.387 155.555 235.387 155.672 235.27C155.79 235.153 155.79 234.963 155.672 234.846L153.975 233.149L155.672 231.452C155.79 231.335 155.79 231.145 155.672 231.027C155.555 230.91 155.365 230.91 155.248 231.027L153.339 232.937ZM163.817 232.849L153.551 232.849L153.551 233.449L163.817 233.449L163.817 232.849Z" fill="#55DD77"/>
<path d="M127.559 246.008C127.442 245.891 127.252 245.891 127.135 246.008L125.226 247.917C125.109 248.034 125.109 248.224 125.226 248.342C125.343 248.459 125.533 248.459 125.65 248.342L127.347 246.644L129.044 248.342C129.161 248.459 129.351 248.459 129.468 248.342C129.586 248.224 129.586 248.034 129.468 247.917L127.559 246.008ZM127.647 256.49L127.647 246.22L127.047 246.22L127.047 256.49L127.647 256.49Z" fill="#55DD77"/>
<path d="M59.8109 158.859V158.559H59.5109V158.859H59.8109ZM63.5349 159.071C63.6521 158.954 63.6521 158.764 63.5349 158.647L61.6257 156.738C61.5086 156.621 61.3186 156.621 61.2015 156.738C61.0843 156.855 61.0843 157.045 61.2015 157.162L62.8985 158.859L61.2015 160.556C61.0843 160.673 61.0843 160.863 61.2015 160.98C61.3186 161.098 61.5086 161.098 61.6257 160.98L63.5349 159.071ZM59.8109 159.159H63.3228V158.559H59.8109V159.159ZM59.5109 158.859V171.691H60.1109V158.859H59.5109Z" fill="#55DD77"/>
<path d="M57.1094 291.5L56.8973 291.712L57.1094 291.924L57.3215 291.712L57.1094 291.5ZM59.5706 289.339C59.5706 289.173 59.4362 289.039 59.2706 289.039H56.5706C56.4049 289.039 56.2706 289.173 56.2706 289.339C56.2706 289.505 56.4049 289.639 56.5706 289.639H58.9706V292.039C58.9706 292.205 59.1049 292.339 59.2706 292.339C59.4362 292.339 59.5706 292.205 59.5706 292.039V289.339ZM57.3215 291.712L59.4827 289.551L59.0584 289.127L56.8973 291.288L57.3215 291.712ZM57.3215 291.288L48.2717 282.238L47.8474 282.662L56.8973 291.712L57.3215 291.288Z" fill="#55DD77"/>
<path d="M259.849 60.0442C259.732 59.9271 259.542 59.9271 259.425 60.0442L257.516 61.9534C257.399 62.0706 257.399 62.2605 257.516 62.3777C257.633 62.4949 257.823 62.4949 257.94 62.3777L259.637 60.6806L261.334 62.3777C261.451 62.4949 261.641 62.4949 261.759 62.3777C261.876 62.2605 261.876 62.0706 261.759 61.9534L259.849 60.0442ZM259.937 69.4413L259.937 60.2564L259.337 60.2564L259.337 69.4413L259.937 69.4413Z" fill="#55DD77"/>
<path d="M168.679 114.015H168.979V113.715H168.679V114.015ZM155.77 113.803C155.653 113.92 155.653 114.11 155.77 114.227L157.679 116.136C157.797 116.254 157.986 116.254 158.104 116.136C158.221 116.019 158.221 115.829 158.104 115.712L156.407 114.015L158.104 112.318C158.221 112.201 158.221 112.011 158.104 111.894C157.986 111.777 157.797 111.777 157.679 111.894L155.77 113.803ZM168.679 131.98V132.28H168.979V131.98H168.679ZM168.679 113.715H155.982V114.315H168.679V113.715ZM168.379 114.015V131.98H168.979V114.015H168.379ZM168.679 131.68H152.47V132.28H168.679V131.68Z" fill="#55DD77"/>
</svg>

<svg width="311" height="294" fill="none" xmlns="http://www.w3.org/2000/svg"><path d="M89.297 229.16c-.458-6.431-2.002-13.072-4.757-20.175m4.757 28.357a59.717 59.717 0 01-.933 7.048m0 0c-2.81 14.598-10.972 29.157-22.872 46.878l-1.965-1.794m24.837-45.084h17.675m0 0v-1.384m0 1.384v1.385m-21.5-36.79c-3.857-9.941-10.09-20.787-19.047-33.229L2 233.314l57.087 52.108m25.453-76.437h3.94m64.239 17.604h1.186m-1.186 0h-1.187m1.187 0v-34.637m-4.352 52.438h4.352v-4.549m-4.352 4.549v-1.384m0 1.384v1.385m4.352-5.934h-1.187m1.187 0h1.186M65.492 139.56h13.845m-13.845 0v-17.208m0 17.208v16.219m13.845-16.219h9.099m-9.099 0v4.154m73.382 30.855v17.383m0-17.383v-17.801m0 17.801h-16.727m16.727-17.801v-17.01m0 17.01h-17.802m-5.736 0v-11.274m0 11.274h1.187m-1.187 0v11.67m23.538-28.68h-23.538v1.186m23.538-1.186v-4.747h19.186v-24.527h-19.186m0 0v-5.34m0 5.34v6.923m0-12.263V58.267H253.91m-101.191 46.877h-5.736m-58.547 0H65.492v17.208m22.944-17.208h52.02m-52.02 0v.989m0 33.427h11.867v25.713M88.436 139.56v-1.582m-22.944-15.626h22.944m0 0v-3.758m0 3.758v9.098m0-12.856h5.538m-5.538 0v-7.912m0 20.768h11.867v-12.856h-1.186M88.436 131.45v1.781m52.02-28.087V58.267h-10.681m10.681 46.877h1.384m-12.065-46.877v11.076H94.963V58.267h-9.098V11.983h78.326m-34.416 46.284v-1.78m34.416-44.504v34.614m0-34.614V1.5h52.217v10.483m-52.217 34.614h-34.416v1.78m34.416-1.78h23.933m80.304 11.67v11.472h17.01v5.736h6.725m-23.735-17.208v-1.978m0 1.978h-4.523m4.523-46.284h41.537v46.284h-6.923v17.208h-.989m-33.625-63.492h-52.02m52.02 0v34.614m-52.02-34.614v34.614m0 0h-19.384m19.384 0h19.977m32.043 0h-23.142m23.142 0v2.176m-115.709 68.634h12.658m-12.658 0v11.076m0-11.076l12.658 11.076m0-11.076v11.076m0-11.076l-12.658 11.076m12.658 0h-12.658m-64.238 80.502v-1.186m0 1.186v1.385m7.881-1.385h3.941v-17.033m-3.94 17.033v1.385m0-1.385v-1.186m3.94-42.526h1.187m-1.187 0h-1.186m1.186 6.527h-1.186m1.186 0h1.187m-1.187 0v2.322m-20.966-25.464v25.464m-13.845-12.805v12.857l13.845-.052m49.844-.937v1.384h6.811M253.91 58.267V57.15m0 1.117v1.179m9.995-1.18v1.18m0-1.18V57.15M87.365 174.122h-8.028m20.966 0H94.93m5.373 0v17.83m0 0h8.674m11.076 0h15.939m16.727 0h-16.727m0 0v-11.481m0-5.902v1.444" stroke="#18211A" stroke-width="2"/><path d="M89.227 228.963v8.505M59 285.287l4.593 4.322M79.337 143.714v4.944M108.977 191.952h11.274M65.492 155.779v5.538M87.366 174.122h7.564M135.992 176.013v4.458M129.181 168.438v4.747M130.368 156.768h4.549M129.181 140.944v4.55M88.436 133.231v4.747M93.974 118.594h5.143M88.436 106.133v4.549M141.84 105.144h5.143M129.775 48.377v8.11M188.124 46.597h8.9M236.385 46.597h8.901M268.428 48.773v7.516M292.163 75.475h9.89" stroke="#F82"/><path d="M153.339 232.937a.3.3 0 000 .424l1.909 1.909a.3.3 0 00.424-.424l-1.697-1.697 1.697-1.697a.3.3 0 10-.424-.425l-1.909 1.91zm10.478-.088h-10.266v.6h10.266v-.6zM127.559 246.008a.3.3 0 00-.424 0l-1.909 1.909a.3.3 0 10.424.425l1.697-1.698 1.697 1.698a.3.3 0 10.424-.425l-1.909-1.909zm.088 10.482v-10.27h-.6v10.27h.6zM59.81 158.859v-.3h-.3v.3h.3zm3.725.212a.3.3 0 000-.424l-1.91-1.909a.3.3 0 00-.423.424l1.697 1.697-1.697 1.697a.3.3 0 10.424.424l1.909-1.909zm-3.724.088h3.512v-.6H59.81v.6zm-.3-.3v12.832h.6v-12.832h-.6zM57.11 291.5l-.213.212.212.212.212-.212-.212-.212zm2.46-2.161a.3.3 0 00-.3-.3h-2.7a.3.3 0 100 .6h2.4v2.4a.3.3 0 10.6 0v-2.7zm-2.248 2.373l2.16-2.161-.424-.424-2.16 2.161.423.424zm0-.424l-9.05-9.05-.425.424 9.05 9.05.425-.424zM259.849 60.044a.3.3 0 00-.424 0l-1.909 1.91a.3.3 0 00.424.424l1.697-1.697 1.697 1.697a.3.3 0 00.425-.425l-1.91-1.909zm.088 9.397v-9.185h-.6v9.185h.6zM168.679 114.015h.3v-.3h-.3v.3zm-12.909-.212a.3.3 0 000 .424l1.909 1.909a.3.3 0 10.425-.424l-1.697-1.697 1.697-1.697a.3.3 0 10-.425-.424l-1.909 1.909zm12.909 18.177v.3h.3v-.3h-.3zm0-18.265h-12.697v.6h12.697v-.6zm-.3.3v17.965h.6v-17.965h-.6zm.3 17.665H152.47v.6h16.209v-.6z" fill="#5D7"/></svg>
